X: 1
T: Carousel Duet
M: 3/4
L: 1/4
K: Amaj
V:1
| va a a | g g g | f g a | e2 z |
!3!d d d | c c c | B B B | A2 z |
!>!A B c | !>!A B c | !>!A B c | d2 z |
!>!B c d | !>!B c d | !>!B c d | e2 z |
!3!a g f | e d c | B A B | A2 z |]
V:2
|vA c e | A c e | A d f | A c e |
B G E | A F D | E G E | A E A, |
!>!C E E | !>!C E E | !>!C E E | !>!C E E |
!>!G E E | !>!G E E | !>!G A B | c E A |
f e d    | c B A | E F G | A E A,]
